public/images/icons/github-network.svg

<svg width="40" height="40" viewBox="0 0 40 40" fill="none" xmlns="http://www.w3.org/2000/svg">
<path d="M16.3531 30.0087C16.5931 30.0087 16.7751 30.0007 16.8951 29.9847C17.0359 29.9562 17.1628 29.8807 17.2551 29.7707C17.3751 29.6447 17.4351 29.4627 17.4351 29.2227L17.4271 28.1087C17.4211 27.3987 17.4191 26.8347 17.4191 26.4207L17.0431 26.4867C16.7422 26.5341 16.4375 26.5528 16.1331 26.5427C15.7506 26.5359 15.3693 26.4978 14.9931 26.4287C14.5938 26.3542 14.2181 26.1856 13.8971 25.9367C13.5606 25.6821 13.3095 25.3313 13.1771 24.9307L13.0131 24.5527C12.8752 24.255 12.7019 23.975 12.4971 23.7187C12.3132 23.4559 12.0682 23.2417 11.7831 23.0947L11.6691 23.0147C11.5906 22.9568 11.5194 22.8897 11.4571 22.8147C11.3966 22.7465 11.3467 22.6697 11.3091 22.5867C11.2771 22.5107 11.3031 22.4467 11.3891 22.3987C11.54 22.338 11.7029 22.3127 11.8651 22.3247L12.1931 22.3747C12.4131 22.4167 12.6831 22.5487 13.0051 22.7667C13.3251 22.9867 13.5911 23.2687 13.7991 23.6187C14.0511 24.0667 14.3531 24.4087 14.7091 24.6427C15.0233 24.8643 15.3967 24.9869 15.7811 24.9947C16.1411 24.9947 16.4531 24.9687 16.7151 24.9147C16.9701 24.8618 17.2179 24.7785 17.4531 24.6667C17.5511 23.9367 17.8171 23.3727 18.2531 22.9807C17.6871 22.9247 17.1261 22.8257 16.5751 22.6847C16.0371 22.5364 15.5197 22.3214 15.0351 22.0447C14.5276 21.7693 14.0791 21.3969 13.7151 20.9487C13.3671 20.5107 13.0811 19.9387 12.8551 19.2287C12.6195 18.4311 12.5068 17.6022 12.5211 16.7707C12.5211 15.4507 12.9531 14.3247 13.8151 13.3967C13.4111 12.4027 13.4491 11.2887 13.9291 10.0547C14.2471 9.95468 14.7171 10.0287 15.3391 10.2747C15.9611 10.5207 16.4191 10.7307 16.7071 10.9067C16.9971 11.0807 17.2271 11.2267 17.4031 11.3467C18.4274 11.0622 19.486 10.9195 20.5491 10.9227C21.6291 10.9227 22.6791 11.0627 23.6951 11.3487L24.3151 10.9547C24.7431 10.6947 25.2451 10.4527 25.8231 10.2347C26.4031 10.0147 26.8451 9.95468 27.1511 10.0547C27.6431 11.2887 27.6871 12.4027 27.2811 13.3947C28.1451 14.3247 28.5771 15.4487 28.5771 16.7707C28.5771 17.6987 28.4651 18.5207 28.2411 19.2367C28.0171 19.9527 27.7271 20.5247 27.3731 20.9567C27.0031 21.4005 26.5526 21.7704 26.0451 22.0467C25.5605 22.3235 25.0431 22.5385 24.5051 22.6867C23.9534 22.8272 23.3917 22.9255 22.8251 22.9807C23.3931 23.4707 23.6771 24.2467 23.6771 25.3067V29.2207C23.6771 29.4067 23.7051 29.5567 23.7591 29.6727C23.7845 29.7279 23.8208 29.7775 23.8658 29.8184C23.9108 29.8593 23.9637 29.8907 24.0211 29.9107C24.1411 29.9527 24.2491 29.9807 24.3411 29.9907C24.4351 30.0027 24.5671 30.0087 24.7411 30.0087H20.8091H16.3551H16.3531Z" fill="#292929"/>
<path d="M20 36C24.2435 36 28.3131 34.3143 31.3137 31.3137C34.3143 28.3131 36 24.2435 36 20C36 15.7565 34.3143 11.6869 31.3137 8.68629C28.3131 5.68571 24.2435 4 20 4C15.7565 4 11.6869 5.68571 8.68629 8.68629C5.68571 11.6869 4 15.7565 4 20C4 24.2435 5.68571 28.3131 8.68629 31.3137C11.6869 34.3143 15.7565 36 20 36ZM20 40C8.954 40 0 31.046 0 20C0 8.954 8.954 0 20 0C31.046 0 40 8.954 40 20C40 31.046 31.046 40 20 40Z" fill="#292929"/>
</svg>

<svg width="40" height="40" fill="none" xmlns="http://www.w3.org/2000/svg"><path d="M16.353 30.009c.24 0 .422-.008.542-.024a.634.634 0 0 0 .36-.214c.12-.126.18-.308.18-.548l-.008-1.114c-.006-.71-.008-1.274-.008-1.688l-.376.066a4.82 4.82 0 0 1-.91.056 7 7 0 0 1-1.14-.114 2.552 2.552 0 0 1-1.096-.492 2.08 2.08 0 0 1-.72-1.006l-.164-.378a4.09 4.09 0 0 0-.516-.834 1.978 1.978 0 0 0-.714-.624l-.114-.08a1.206 1.206 0 0 1-.36-.428c-.032-.076-.006-.14.08-.188.151-.061.314-.086.476-.074l.328.05c.22.042.49.174.812.392.32.22.586.502.794.852.252.448.554.79.91 1.024.314.221.688.344 1.072.352.36 0 .672-.026.934-.08.255-.053.503-.136.738-.248.098-.73.364-1.294.8-1.686a11.228 11.228 0 0 1-1.678-.296 6.693 6.693 0 0 1-1.54-.64 4.41 4.41 0 0 1-1.32-1.096c-.348-.438-.634-1.01-.86-1.72a8.18 8.18 0 0 1-.334-2.458c0-1.32.432-2.446 1.294-3.374-.404-.994-.366-2.108.114-3.342.318-.1.788-.026 1.41.22.622.246 1.08.456 1.368.632.29.174.52.32.696.44a11.625 11.625 0 0 1 3.146-.424c1.08 0 2.13.14 3.146.426l.62-.394c.428-.26.93-.502 1.508-.72.58-.22 1.022-.28 1.328-.18.492 1.234.536 2.348.13 3.34.864.93 1.296 2.054 1.296 3.376 0 .928-.112 1.75-.336 2.466-.224.716-.514 1.288-.868 1.72a4.58 4.58 0 0 1-1.328 1.09 6.684 6.684 0 0 1-1.54.64c-.552.14-1.113.238-1.68.294.568.49.852 1.266.852 2.326v3.914c0 .186.028.336.082.452a.453.453 0 0 0 .262.238c.12.042.228.07.32.08.094.012.226.018.4.018h-8.388Z" fill="#292929"/><path d="M20 36a16 16 0 1 0 0-32 16 16 0 0 0 0 32Zm0 4C8.954 40 0 31.046 0 20S8.954 0 20 0s20 8.954 20 20-8.954 20-20 20Z" fill="#292929"/></svg>
